dist/svg/attach-alert.svg

<svg width="16" height="16" viewBox="0 0 16 16" fill="rgb(34, 34, 34)" xmlns="http://www.w3.org/2000/svg"><title>attach-alert</title><path d="M10.56 5.02201C9.99401 5.06401 9.46801 5.17801 8.97301 5.35601L9.01501 5.34301L9.27101 5.09601C9.72101 4.67001 10 4.06901 10 3.40301C10 2.73701 9.72001 2.13601 9.27201 1.71101L9.27101 1.71001C8.80601 1.27001 8.17701 1.00001 7.48501 1.00001C6.79301 1.00001 6.16401 1.27101 5.69801 1.71201L5.69901 1.71101L2.14601 5.13301L1.45301 4.41201L5.00601 0.990006C5.65101 0.379006 6.52401 0.00300598 7.48501 0.00300598C8.44601 0.00300598 9.31901 0.379006 9.96601 0.991006L9.96401 0.989006C10.603 1.59701 11 2.45301 11 3.40201C10.995 3.99901 10.833 4.55601 10.552 5.03601L10.56 5.02001V5.02201ZM3.58501 10.572C3.30601 10.838 2.92701 11.001 2.51001 11.001C2.09301 11.001 1.71501 10.838 1.43501 10.571L1.43601 10.572C1.16801 10.319 1.00001 9.96101 1.00001 9.56401C1.00001 9.16701 1.16701 8.80901 1.43501 8.55601L1.43601 8.55501L7.12201 3.07901C7.21701 2.98901 7.34501 2.93401 7.48601 2.93401C7.62701 2.93401 7.75501 2.98901 7.85001 3.07901C7.93701 3.16001 7.99201 3.27501 7.99201 3.40301C7.99201 3.53101 7.93801 3.64601 7.85101 3.72601L4.28001 7.16601L4.97301 7.88701L8.54401 4.44701C8.82001 4.18401 8.99201 3.81301 8.99201 3.40301C8.99201 2.99301 8.82001 2.62201 8.54401 2.35901L8.54301 2.35801C8.26801 2.09801 7.89601 1.93801 7.48601 1.93801C7.07601 1.93801 6.70401 2.09801 6.42801 2.35901L6.42901 2.35801L0.743007 7.83401C0.285007 8.26901 0.00100708 8.88301 0.00100708 9.56301C0.00100708 10.243 0.286007 10.857 0.742007 11.291L0.743007 11.292C1.20301 11.729 1.82501 11.997 2.51101 11.997C3.19701 11.997 3.81901 11.728 4.28001 11.291L4.27901 11.292L5.02201 10.576C5.06801 9.92701 5.21001 9.32401 5.43501 8.76301L5.42101 8.80301L3.58501 10.572ZM16 11C16 13.761 13.761 16 11 16C8.23901 16 6.00001 13.761 6.00001 11C6.00001 8.23901 8.23901 6.00001 11 6.00001C13.761 6.00001 16 8.23901 16 11ZM12 13H10V14H12V13ZM12 8.00001H10V12H12V8.00001Z" fill="rgb(34, 34, 34)" fill-opacity="1.00"/></svg>

<!-- Generated by Trend Micro Style Portal -->
<svg version="1.1" xmlns="http://www.w3.org/2000/svg" width="16" height="16" viewBox="0 0 16 16">
  <title>attach-alert</title>
  <path fill="rgb(34,34,34)" d="M10.56 5.022c-0.566 0.042-1.092 0.156-1.587 0.334l0.042-0.013 0.256-0.247c0.45-0.426 0.729-1.027 0.729-1.693s-0.28-1.267-0.728-1.692l-0.001-0.001c-0.465-0.44-1.094-0.71-1.786-0.71s-1.321 0.271-1.787 0.712l0.001-0.001-3.553 3.422-0.693-0.721 3.553-3.422c0.645-0.611 1.518-0.987 2.479-0.987s1.834 0.376 2.481 0.988l-0.002-0.002c0.639 0.608 1.036 1.464 1.036 2.413v0c-0.005 0.597-0.167 1.154-0.448 1.634l0.008-0.016zM3.585 10.572c-0.279 0.266-0.658 0.429-1.075 0.429s-0.795-0.163-1.075-0.43l0.001 0.001c-0.268-0.253-0.436-0.611-0.436-1.008s0.167-0.755 0.435-1.008l0.001-0.001 5.686-5.476c0.095-0.090 0.223-0.145 0.364-0.145s0.269 0.055 0.364 0.145l-0-0c0.087 0.081 0.142 0.196 0.142 0.324s-0.054 0.243-0.141 0.323l-0 0-3.571 3.44 0.693 0.721 3.571-3.44c0.276-0.263 0.448-0.634 0.448-1.044s-0.172-0.781-0.448-1.044l-0.001-0.001c-0.275-0.26-0.647-0.42-1.057-0.42s-0.782 0.16-1.058 0.421l0.001-0.001-5.686 5.476c-0.458 0.435-0.742 1.049-0.742 1.729s0.285 1.294 0.741 1.728l0.001 0.001c0.46 0.437 1.082 0.705 1.768 0.705s1.308-0.269 1.769-0.706l-0.001 0.001 0.743-0.716c0.046-0.649 0.188-1.252 0.413-1.813l-0.014 0.040zM16 11c0 2.761-2.239 5-5 5s-5-2.239-5-5c0-2.761 2.239-5 5-5v0c2.761 0 5 2.239 5 5v0zM12 13h-2v1h2zM12 8h-2v4h2z"></path>
</svg>
